X:58
T:Stack of Wheat
Z: id:dc-hornpipe-52
M:C|
L:1/8
K:G Major
BA|GEDE GABG|(3ABA GA Bdef|gedB GABG|dBAG E2BA|!
GEDE GABG|(3ABA GA Bdef|gedB GABG|AGEF G2:|!
(3Bcd|edBd edgd|edBd e2 (3def|gedB GABG|dBAG E2|!
[1 (3Bcd|edBd edgd|edBd e2 (3def|gedB GABG|AGEF G2:|!
[2 BA|GEDE GABG|(3ABA GA Bdef|gedB GABG|AGEF G2|]!

